client/public/game_modes/bouncing_ball/frame19.svg

<svg xmlns="http://www.w3.org/2000/svg" width="437" height="483" fill="none"><path fill="#EDEDED" d="M239 85h20v20h-20V85Zm0 20h20v20h-20v-20Zm20 20h20v20h-20v-20Zm0-20h20v20h-20v-20Zm20 20h20v20h-20v-20Zm0 20h20v20h-20v-20Zm-20 0h20v20h-20v-20Zm-20-20h20v20h-20v-20Zm-20-20h20v20h-20v-20Zm0-20h20v20h-20V85Z"/><path stroke="#EDEDED" stroke-width="5" d="M239 85h20v20m-20-20v20m0-20h-20v20m40 0h-20m20 0v20m0-20h20v20m-40-20v20m0-20h-20m40 20h-20m20 0h20m-20 0v20m-20-20v20h20m-20-20h-20v-20m60 20v20m0-20h20v20m-20 0h-20m20 0h20m-20 0v20m-20-20v20h20m20-20v20h-20"/><path fill="#949494" d="M119 105h20v20h-20v-20Zm-20 20h20v20H99v-20Zm0 60h20v20H99v-20Zm0 20h20v20H99v-20Zm0 20h20v20H99v-20Zm100 60h20v20h-20v-20Zm60 0h20v20h-20v-20Zm-20 0h20v20h-20v-20Zm-20 0h20v20h-20v-20Zm-40-20h20v20h-20v-20Zm0 20h20v20h-20v-20Zm-20-20h20v20h-20v-20Zm0 20h20v20h-20v-20Zm-20-40h20v20h-20v-20Zm0 20h20v20h-20v-20Zm-20-40h20v20h-20v-20Zm0 20h20v20h-20v-20Zm0-40h20v20h-20v-20Zm-20-40h20v20H99v-20Zm0-20h20v20H99v-20Z"/><path stroke="#949494" stroke-width="5" d="M119 125h20v-20h-20v20Zm0 0H99v20m20-20v20m0 0H99m20 0v20m-20-20v20m0 20h20m-20 0v20m0-20v-20m20 20v20m0-20v-20m0 40H99m20 0v20m0-20h20v20m-40-20v20m20 0H99m20 0v20m0-20h20m-40 0v20h20m0 0h20m-20 0v20h20m60 20h20m-20 0v20m0-20v-20h-20m20 20h-20m40 0v20m0-20h20m-20 20h-20m20 0h20m-40 0h-20m80-20h20v20h-20m0-20v20m0-20h-20m20 20h-20m0-20v20m-60-40v20m0-20h-20m20 20v20m0-20h-20m20 20h-20v-20m0-20v20m0-20v-20h-20m20 20h-20m20 20h-20v-20m0-20v20m0-20v-20m-40-60h20"/><path fill="#D9D9D9" d="M139 85h20v20h-20V85Zm40-20h20v20h-20V65Zm0 20h20v20h-20V85Zm20-20h20v20h-20V65Zm40 0h20v20h-20V65Zm20 0h20v20h-20V65Zm0 20h20v20h-20V85Zm20 0h20v20h-20V85Zm0 20h20v20h-20v-20Zm20 0h20v20h-20v-20Zm0 60h20v20h-20v-20Zm0-20h20v20h-20v-20Zm0 40h20v20h-20v-20Zm0 40h20v20h-20v-20Zm0-100h20v20h-20v-20Zm0 80h20v20h-20v-20Zm20-40h20v20h-20v-20Zm0-20h20v20h-20v-20Zm0 40h20v20h-20v-20Zm0-60h20v20h-20v-20Zm0 80h20v20h-20v-20Zm-40-20h20v20h-20v-20Zm0-20h20v20h-20v-20Zm0 40h20v20h-20v-20Zm0 40h20v20h-20v-20Zm-20 20h20v20h-20v-20Zm60-40h20v20h-20v-20Zm-20 20h20v20h-20v-20Zm-20 20h20v20h-20v-20Zm-120-20h20v20h-20v-20Zm40 20h20v20h-20v-20Zm-40-60h20v20h-20v-20Zm-20 0h20v20h-20v-20Zm20-20h20v20h-20v-20Zm-20-20h20v20h-20v-20Zm0-20h20v20h-20v-20Zm20 0h20v20h-20v-20Zm-20-20h20v20h-20v-20Zm20 0h20v20h-20v-20Zm-20-20h20v20h-20v-20Zm20 60h20v20h-20v-20Zm0-60h20v20h-20v-20Zm-40 20h20v20h-20v-20Zm0 60h20v20h-20v-20Zm0-20h20v20h-20v-20Zm0-20h20v20h-20v-20Zm20 40h20v20h-20v-20Zm20 40h20v20h-20v-20Zm-20 0h20v20h-20v-20Zm40 0h20v20h-20v-20Zm0 20h20v20h-20v-20Zm20 0h20v20h-20v-20Zm20 20h20v20h-20v-20Zm20 0h20v20h-20v-20Zm40-40h20v20h-20v-20ZM179 105h20v20h-20v-20Zm0 40h20v20h-20v-20Zm0-20h20v20h-20v-20Zm0 40h20v20h-20v-20Zm0 40h20v20h-20v-20Zm0-20h20v20h-20v-20Zm20-80h20v20h-20v-20Zm0 20h20v20h-20v-20Zm0 40h20v20h-20v-20Zm0-20h20v20h-20v-20Zm0 40h20v20h-20v-20Zm0 40h20v20h-20v-20Zm0-20h20v20h-20v-20Zm20-80h20v20h-20v-20Zm0 20h20v20h-20v-20Zm0 40h20v20h-20v-20Zm0-20h20v20h-20v-20Zm0 40h20v20h-20v-20Zm0 40h20v20h-20v-20Zm0-20h20v20h-20v-20Zm20-80h20v20h-20v-20Zm0 20h20v20h-20v-20Zm0 40h20v20h-20v-20Zm0-20h20v20h-20v-20Zm0 60h20v20h-20v-20Zm0-20h20v20h-20v-20Zm20-60h20v20h-20v-20Zm0 20h20v20h-20v-20Zm0 40h20v20h-20v-20Zm0 20h20v20h-20v-20Zm0-40h20v20h-20v-20ZM199 85h20v20h-20V85Zm20-20h20v20h-20V65Zm-60 0h20v20h-20V65Zm0 20h20v20h-20V85Z"/><path stroke="#D9D9D9" stroke-width="5" d="M159 85h-20v20m20-20v20m0-20h20m-20 0V65h20m-20 40h-20m20 0v20m0-20h20m-40 0v20m40-60h20m-20 0v20m20-20v20m0-20h20m-20 20h-20m20 0v20m0-20h20m-40 0v20m20 0h-20m20 0v20m0-20h20m-40 0v20m40-60v20m0-20h20m-20 20v20m0-20h20m0-20h20m-20 0v20m20-20v20m0-20h20v20m-20 0h-20m20 0h20m-20 0v20h20m0-20v20m0-20h20v20m-20 0h20m-20 0v20h20m0-20v20m0-20h20v20m-20 0h20m-20 0v20m20-20v20m0-20h20v20m-40 20h20m-20 0v20m0-20v-20m0 20h-20m40 0v20m0-20v-20m0 20h20m-20 20h-20m20 0v20m0-20h20m-40 0v20m0-20h-20m20-40h20m0 0h20m-20 60h-20m20 0v20m0-20h20m-40 0v20m0-20h-20m20 20h20m-20 0v20m0-20h-20m40 0v20m0-20h20m-20 20h-20m20 0h20v-20m-20 20v20h-20m0-20h-20m20 0v20m40-100v20m0-20v-20m0 40v20m0 0v20m-60-40v20m0-20v-20m0 20h-20m20 20v20m0-20h-20m20-40h-20m20 60v20m0-20h-20m20 20v20m0-20h-20m40 20h-20m20 0v20h-20m0-20h-20m20 0v20m-20-20v20m0-20h-20m20 0v-20m20 40h-20m0 0h-20m-80-40h20m-20 0v20h20m-20-20v-20m0 20h-20v-20m40 20v20m0-20v-20m0 20h20m-20 20h20m0 0h20m-20 0v20h20m-20-20v-20m20 20v20m0-20v-20m0 20h20m-20 20h20m-80-80h20m-20 0v20m0-20h-20m20 0v-20m20 20v20m0-20v-20m0 20h20m-20 20h-20m20 0h20m-40 0h-20m0-20v20m0-20v-20m0 20h-20v-20m40 0h20m-20 0v-20m0 20h-20m40 0v-20m0 20h20m-60-20h20m-20 0v20m0-20v-20m0 20h-20m40 0v-20m0 20h20m-40 20h-20m20-40h20m-20 0v-20m0 20h-20m40 0h20m-20 0v-20m20 20v20m0-20v-20m0 20h20m-20 20h20m-60-40h20m-20 0h-20v20m40-20h20m0 0h20m-80 20v20m0 20v-20m80 60v20m0-20v-20m0 20h20m-20 20h20m0 0v-20m0 20h20m0 20v20m0-20v-20m-40-120v20m0-20h20m-20 20v20m0-20h20m-20 20v20m0-20h20m-20 20v20m0-20h20m-20 20h20m0-100v20m0 0v20m0-20h20v20m-20 0v20m0-20h20m-20 20v20m0-20h20m-20 20v20m0-20h20m-20 20v20m0-20h20m-20 20h20m0-80v20m0-20h20v20m-20 0v20m0-20h20m-20 20v20m0-20h20m-20 20v20m0-20h20m-20 20v20m0-20h20m-20 20h20m0-80v20m0 0v20m0 0v20m0 0v20"/></svg>

<svg width="437" height="483" viewBox="0 0 437 483" fill="none" xmlns="http://www.w3.org/2000/svg">
<path d="M239 85H259V105H239V85Z" fill="#EDEDED"/>
<path d="M239 105H259V125H239V105Z" fill="#EDEDED"/>
<path d="M259 125H279V145H259V125Z" fill="#EDEDED"/>
<path d="M259 105H279V125H259V105Z" fill="#EDEDED"/>
<path d="M279 125H299V145H279V125Z" fill="#EDEDED"/>
<path d="M279 145H299V165H279V145Z" fill="#EDEDED"/>
<path d="M259 145H279V165H259V145Z" fill="#EDEDED"/>
<path d="M239 125H259V145H239V125Z" fill="#EDEDED"/>
<path d="M219 105H239V125H219V105Z" fill="#EDEDED"/>
<path d="M219 85H239V105H219V85Z" fill="#EDEDED"/>
<path d="M239 85H259V105M239 85V105M239 85H219V105M259 105H239M259 105V125M259 105H279V125M239 105V125M239 105H219M259 125H239M259 125H279M259 125V145M239 125V145H259M239 125H219V105M279 125V145M279 125H299V145M279 145H259M279 145H299M279 145V165M259 145V165H279M299 145V165H279" stroke="#EDEDED" stroke-width="5"/>
<path d="M119 105H139V125H119V105Z" fill="#949494"/>
<path d="M99 125H119V145H99V125Z" fill="#949494"/>
<path d="M99 185H119V205H99V185Z" fill="#949494"/>
<path d="M99 205H119V225H99V205Z" fill="#949494"/>
<path d="M99 225H119V245H99V225Z" fill="#949494"/>
<path d="M199 285H219V305H199V285Z" fill="#949494"/>
<path d="M259 285H279V305H259V285Z" fill="#949494"/>
<path d="M239 285H259V305H239V285Z" fill="#949494"/>
<path d="M219 285H239V305H219V285Z" fill="#949494"/>
<path d="M179 265H199V285H179V265Z" fill="#949494"/>
<path d="M179 285H199V305H179V285Z" fill="#949494"/>
<path d="M159 265H179V285H159V265Z" fill="#949494"/>
<path d="M159 285H179V305H159V285Z" fill="#949494"/>
<path d="M139 245H159V265H139V245Z" fill="#949494"/>
<path d="M139 265H159V285H139V265Z" fill="#949494"/>
<path d="M119 225H139V245H119V225Z" fill="#949494"/>
<path d="M119 245H139V265H119V245Z" fill="#949494"/>
<path d="M119 205H139V225H119V205Z" fill="#949494"/>
<path d="M99 165H119V185H99V165Z" fill="#949494"/>
<path d="M99 145H119V165H99V145Z" fill="#949494"/>
<path d="M119 125H139V105H119V125ZM119 125H99V145M119 125V145M119 145H99M119 145V165M99 145V165M99 185H119M99 185V205M99 185V165M119 185V205M119 185V165M119 205H99M119 205V225M119 205H139V225M99 205V225M119 225H99M119 225V245M119 225H139M99 225V245H119M119 245H139M119 245V265H139M199 285H219M199 285V305M199 285V265H179M199 285H179M219 285V305M219 285H239M219 305H199M219 305H239M199 305H179M259 285H279V305H259M259 285V305M259 285H239M259 305H239M239 285V305M179 265V285M179 265H159M179 285V305M179 285H159M179 305H159V285M159 265V285M159 265V245H139M159 265H139M159 285H139V265M139 245V265M139 245V225M99 165H119" stroke="#949494" stroke-width="5"/>
<path d="M139 85H159V105H139V85Z" fill="#D9D9D9"/>
<path d="M179 65H199V85H179V65Z" fill="#D9D9D9"/>
<path d="M179 85H199V105H179V85Z" fill="#D9D9D9"/>
<path d="M199 65H219V85H199V65Z" fill="#D9D9D9"/>
<path d="M239 65H259V85H239V65Z" fill="#D9D9D9"/>
<path d="M259 65H279V85H259V65Z" fill="#D9D9D9"/>
<path d="M259 85H279V105H259V85Z" fill="#D9D9D9"/>
<path d="M279 85H299V105H279V85Z" fill="#D9D9D9"/>
<path d="M279 105H299V125H279V105Z" fill="#D9D9D9"/>
<path d="M299 105H319V125H299V105Z" fill="#D9D9D9"/>
<path d="M299 165H319V185H299V165Z" fill="#D9D9D9"/>
<path d="M299 145H319V165H299V145Z" fill="#D9D9D9"/>
<path d="M299 185H319V205H299V185Z" fill="#D9D9D9"/>
<path d="M299 225H319V245H299V225Z" fill="#D9D9D9"/>
<path d="M299 125H319V145H299V125Z" fill="#D9D9D9"/>
<path d="M299 205H319V225H299V205Z" fill="#D9D9D9"/>
<path d="M319 165H339V185H319V165Z" fill="#D9D9D9"/>
<path d="M319 145H339V165H319V145Z" fill="#D9D9D9"/>
<path d="M319 185H339V205H319V185Z" fill="#D9D9D9"/>
<path d="M319 125H339V145H319V125Z" fill="#D9D9D9"/>
<path d="M319 205H339V225H319V205Z" fill="#D9D9D9"/>
<path d="M279 185H299V205H279V185Z" fill="#D9D9D9"/>
<path d="M279 165H299V185H279V165Z" fill="#D9D9D9"/>
<path d="M279 205H299V225H279V205Z" fill="#D9D9D9"/>
<path d="M279 245H299V265H279V245Z" fill="#D9D9D9"/>
<path d="M259 265H279V285H259V265Z" fill="#D9D9D9"/>
<path d="M319 225H339V245H319V225Z" fill="#D9D9D9"/>
<path d="M299 245H319V265H299V245Z" fill="#D9D9D9"/>
<path d="M279 265H299V285H279V265Z" fill="#D9D9D9"/>
<path d="M159 245H179V265H159V245Z" fill="#D9D9D9"/>
<path d="M199 265H219V285H199V265Z" fill="#D9D9D9"/>
<path d="M159 205H179V225H159V205Z" fill="#D9D9D9"/>
<path d="M139 205H159V225H139V205Z" fill="#D9D9D9"/>
<path d="M159 185H179V205H159V185Z" fill="#D9D9D9"/>
<path d="M139 165H159V185H139V165Z" fill="#D9D9D9"/>
<path d="M139 145H159V165H139V145Z" fill="#D9D9D9"/>
<path d="M159 145H179V165H159V145Z" fill="#D9D9D9"/>
<path d="M139 125H159V145H139V125Z" fill="#D9D9D9"/>
<path d="M159 125H179V145H159V125Z" fill="#D9D9D9"/>
<path d="M139 105H159V125H139V105Z" fill="#D9D9D9"/>
<path d="M159 165H179V185H159V165Z" fill="#D9D9D9"/>
<path d="M159 105H179V125H159V105Z" fill="#D9D9D9"/>
<path d="M119 125H139V145H119V125Z" fill="#D9D9D9"/>
<path d="M119 185H139V205H119V185Z" fill="#D9D9D9"/>
<path d="M119 165H139V185H119V165Z" fill="#D9D9D9"/>
<path d="M119 145H139V165H119V145Z" fill="#D9D9D9"/>
<path d="M139 185H159V205H139V185Z" fill="#D9D9D9"/>
<path d="M159 225H179V245H159V225Z" fill="#D9D9D9"/>
<path d="M139 225H159V245H139V225Z" fill="#D9D9D9"/>
<path d="M179 225H199V245H179V225Z" fill="#D9D9D9"/>
<path d="M179 245H199V265H179V245Z" fill="#D9D9D9"/>
<path d="M199 245H219V265H199V245Z" fill="#D9D9D9"/>
<path d="M219 265H239V285H219V265Z" fill="#D9D9D9"/>
<path d="M239 265H259V285H239V265Z" fill="#D9D9D9"/>
<path d="M279 225H299V245H279V225Z" fill="#D9D9D9"/>
<path d="M179 105H199V125H179V105Z" fill="#D9D9D9"/>
<path d="M179 145H199V165H179V145Z" fill="#D9D9D9"/>
<path d="M179 125H199V145H179V125Z" fill="#D9D9D9"/>
<path d="M179 165H199V185H179V165Z" fill="#D9D9D9"/>
<path d="M179 205H199V225H179V205Z" fill="#D9D9D9"/>
<path d="M179 185H199V205H179V185Z" fill="#D9D9D9"/>
<path d="M199 105H219V125H199V105Z" fill="#D9D9D9"/>
<path d="M199 125H219V145H199V125Z" fill="#D9D9D9"/>
<path d="M199 165H219V185H199V165Z" fill="#D9D9D9"/>
<path d="M199 145H219V165H199V145Z" fill="#D9D9D9"/>
<path d="M199 185H219V205H199V185Z" fill="#D9D9D9"/>
<path d="M199 225H219V245H199V225Z" fill="#D9D9D9"/>
<path d="M199 205H219V225H199V205Z" fill="#D9D9D9"/>
<path d="M219 125H239V145H219V125Z" fill="#D9D9D9"/>
<path d="M219 145H239V165H219V145Z" fill="#D9D9D9"/>
<path d="M219 185H239V205H219V185Z" fill="#D9D9D9"/>
<path d="M219 165H239V185H219V165Z" fill="#D9D9D9"/>
<path d="M219 205H239V225H219V205Z" fill="#D9D9D9"/>
<path d="M219 245H239V265H219V245Z" fill="#D9D9D9"/>
<path d="M219 225H239V245H219V225Z" fill="#D9D9D9"/>
<path d="M239 145H259V165H239V145Z" fill="#D9D9D9"/>
<path d="M239 165H259V185H239V165Z" fill="#D9D9D9"/>
<path d="M239 205H259V225H239V205Z" fill="#D9D9D9"/>
<path d="M239 185H259V205H239V185Z" fill="#D9D9D9"/>
<path d="M239 245H259V265H239V245Z" fill="#D9D9D9"/>
<path d="M239 225H259V245H239V225Z" fill="#D9D9D9"/>
<path d="M259 165H279V185H259V165Z" fill="#D9D9D9"/>
<path d="M259 185H279V205H259V185Z" fill="#D9D9D9"/>
<path d="M259 225H279V245H259V225Z" fill="#D9D9D9"/>
<path d="M259 245H279V265H259V245Z" fill="#D9D9D9"/>
<path d="M259 205H279V225H259V205Z" fill="#D9D9D9"/>
<path d="M199 85H219V105H199V85Z" fill="#D9D9D9"/>
<path d="M219 65H239V85H219V65Z" fill="#D9D9D9"/>
<path d="M159 65H179V85H159V65Z" fill="#D9D9D9"/>
<path d="M159 85H179V105H159V85Z" fill="#D9D9D9"/>
<path d="M159 85H139V105M159 85V105M159 85H179M159 85V65H179M159 105H139M159 105V125M159 105H179M139 105V125M179 65H199M179 65V85M199 65V85M199 65H219M199 85H179M199 85V105M199 85H219M179 85V105M199 105H179M199 105V125M199 105H219M179 105V125M219 65V85M219 65H239M219 85V105M219 85H239M239 65H259M239 65V85M259 65V85M259 65H279V85M259 85H239M259 85H279M259 85V105H279M279 85V105M279 85H299V105M279 105H299M279 105V125H299M299 105V125M299 105H319V125M299 125H319M299 125V145M319 125V145M319 125H339V145M299 165H319M299 165V185M299 165V145M299 165H279M319 165V185M319 165V145M319 165H339M319 185H299M319 185V205M319 185H339M299 185V205M299 185H279M299 145H319M319 145H339M319 205H299M319 205V225M319 205H339M299 205V225M299 205H279M299 225H319M299 225V245M299 225H279M319 225V245M319 225H339M319 245H299M319 245H339V225M319 245V265H299M299 245H279M299 245V265M339 165V185M339 165V145M339 185V205M339 205V225M279 185V205M279 185V165M279 185H259M279 205V225M279 205H259M279 165H259M279 225V245M279 225H259M279 245V265M279 245H259M299 265H279M299 265V285H279M279 265H259M279 265V285M259 265V285M259 265H239M259 265V245M279 285H259M259 285H239M159 245H179M159 245V265H179M159 245V225M159 245H139V225M179 245V265M179 245V225M179 245H199M179 265H199M199 265H219M199 265V285H219M199 265V245M219 265V285M219 265V245M219 265H239M219 285H239M159 205H179M159 205V225M159 205H139M159 205V185M179 205V225M179 205V185M179 205H199M179 225H159M179 225H199M159 225H139M139 205V225M139 205V185M139 205H119V185M159 185H179M159 185V165M159 185H139M179 185V165M179 185H199M139 165H159M139 165V185M139 165V145M139 165H119M159 165V145M159 165H179M139 185H119M139 145H159M139 145V125M139 145H119M159 145H179M159 145V125M179 145V165M179 145V125M179 145H199M179 165H199M139 125H159M139 125H119V145M159 125H179M179 125H199M119 145V165M119 185V165M199 225V245M199 225V205M199 225H219M199 245H219M219 245V225M219 245H239M239 265V285M239 265V245M199 125V145M199 125H219M199 145V165M199 145H219M199 165V185M199 165H219M199 185V205M199 185H219M199 205H219M219 105V125M219 125V145M219 125H239V145M219 145V165M219 145H239M219 165V185M219 165H239M219 185V205M219 185H239M219 205V225M219 205H239M219 225H239M239 145V165M239 145H259V165M239 165V185M239 165H259M239 185V205M239 185H259M239 205V225M239 205H259M239 225V245M239 225H259M239 245H259M259 165V185M259 185V205M259 205V225M259 225V245" stroke="#D9D9D9" stroke-width="5"/>
</svg>
